icons/action/icon_password-hide_m_black.svg

<svg width="24" height="24" viewBox="0 0 24 24" xmlns="http://www.w3.org/2000/svg"><g fill="none" fill-rule="evenodd"><path d="M0 0h24v24H0z"/><path d="M23.936 7.245l-.871-.49a11.935 11.935 0 0 1-3.579 3.942c-1.443 1.017-3.1 1.703-4.925 2.043-.938.175-1.776.26-2.561.26-.785 0-1.623-.085-2.561-.26l-.092.491.091-.491c-1.824-.34-3.481-1.026-4.925-2.043A11.941 11.941 0 0 1 .935 6.755l-.872.49c.855 1.524 2.011 2.826 3.412 3.905l-1.76 1.76.707.707 1.877-1.877a13.368 13.368 0 0 0 4.433 1.857l-.849 3.171.966.258.867-3.237c.812.132 1.573.211 2.284.211.711 0 1.472-.079 2.284-.21l.868 3.237.967-.26-.85-3.17c1.614-.362 3.1-.984 4.432-1.857l1.875 1.875.707-.707-1.759-1.759c1.401-1.078 2.557-2.38 3.412-3.904z" fill="#0B1F35"/></g></svg>

<?xml version="1.0" encoding="UTF-8"?>
<svg width="24px" height="24px" viewBox="0 0 24 24" version="1.1" xmlns="http://www.w3.org/2000/svg" xmlns:xlink="http://www.w3.org/1999/xlink">
    <!-- Generator: Sketch 48.2 (47327) - http://www.bohemiancoding.com/sketch -->
    <title>icon_password-hide_m_black</title>
    <desc>Created with Sketch.</desc>
    <defs></defs>
    <g id="mobile" stroke="none" stroke-width="1" fill="none" fill-rule="evenodd" transform="translate(-486.000000, -1777.000000)">
        <g id="Headings" transform="translate(64.000000, 77.000000)">
            <g id="icon_action_password_hide__m__white" transform="translate(422.000000, 1700.000000)">
                <g id="art">
                    <g id="a1" opacity="0.4"></g>
                    <rect id="Rectangle-path" x="0" y="0" width="24" height="24"></rect>
                    <path d="M23.936,7.245 L23.065,6.755 C22.187,8.317 20.984,9.645 19.486,10.697 C18.043,11.714 16.386,12.4 14.561,12.74 C13.623,12.915 12.785,13 12,13 C11.215,13 10.377,12.915 9.439,12.74 L9.347,13.231 L9.438,12.74 C7.614,12.4 5.957,11.714 4.513,10.697 C3.016,9.644 1.812,8.317 0.935,6.755 L0.063,7.245 C0.918,8.769 2.074,10.071 3.475,11.15 L1.715,12.91 L2.422,13.617 L4.299,11.74 C5.631,12.613 7.117,13.235 8.732,13.597 L7.883,16.768 L8.849,17.026 L9.716,13.789 C10.528,13.921 11.289,14 12,14 C12.711,14 13.472,13.921 14.284,13.79 L15.152,17.027 L16.119,16.767 L15.269,13.597 C16.883,13.235 18.369,12.613 19.701,11.74 L21.576,13.615 L22.283,12.908 L20.524,11.149 C21.925,10.071 23.081,8.769 23.936,7.245 L23.936,7.245 Z" id="Shape" fill="#0B1F35"></path>
                </g>
            </g>
        </g>
    </g>
</svg>
